X: 201
T: The Blackbird
B: O'Neill's 201
Z: 1997 by John Chambers <jc@trillian.mit.edu>
N: "Moderate"
N: "3rd Setting"
N: "Collected by F.O'Neill"
M: 2/4
L: 1/16
K:D
((5DEFGA) \
|B3d c2B2|A3G ABdcA|d2c2 dcAF|GAGF D2DE|
|F2FG A2fe|d3c dcAF|GAGF D2D2|D4 :|5FGABc|
|d3e f2g2|a3g f2a2|g3f g2a2|g3f d2a2|
|d3e f2g2|a3g f2a2|g3f d2d2|d4 defg|
|a3g fgaf|g3b agfd|c2AB c2de|.d.e.f.g Ha2 FG|
|A3G FGAB|c3e dcAF|G3F D2D2|D4||
